X:1
T:Title
%%score ( 1 2 ) { 3 | 4 }
L:1/8
Q:1/4=117
M:4/4
K:E
V:1 treble nm="Grand Piano, Soprano"
V:2 treble 
V:3 treble nm="Choir Pad, Winchcombe, John B. Calkin"
V:4 bass 
V:1
 E2 [EA]4 [FA]2- | [FA]2 [EA]4 z2 | z2 [Ec]2 [Ec][Ec] [Dc]2 | A2 [Ge]6 | E2 [EF]2 [=DF]2 [DG]2 | %5
w: By~John~Baptiste~Calkin~(1827\-1905) * *|||||
 [CA]2 [EB]4 [Ec]2- | [Ec]2 B2- [CB]2 [DB]2- | [DB]2 [EB]6 | [EB]2 [Ee]4 [DB]2- | [DB]2 [EB]6 | %10
w: |||||
 [DB]2 [Ee]2 [DB]2 [EB]2 | [DB]2 [EB]4 [FB]2- | [FB]2 [^Ec]2 [Fc]2 [Gc]2 | [Gc]2 [Fc]4 [Ad]2- | %14
w: ||||
 [Ad]2 [Ae]4 [Gc]2 | [GB]2 A6- | A2 z2 z4 |] %17
w: |||
V:2
 x8 | x8 | x8 | x8 | x8 | x8 | z2 E2 z4 | x8 | x8 | x8 | x8 | x8 | x8 | x8 | x8 | x8 | x8 |] %17
V:3
 C2 C4 =D2- | D2 C4 z2 | z2[K:bass] A,2 A,A, A,2 | A,2 B,6 | A,2 A,2 A,2 B,2 | A,2 G,4 A,2- | %6
 A,2 F,4 F,2- | F,2 G,6 | G,2 G,4 A,2- | A,2 B,6 | A,2 G,2 A,2 B,2 | A,2 G,4 G,2- | %12
 G,2 G,2 G,2 C2 | B,2 A,4 B,2- | B,2[K:treble] C4 E2 | =D2 C6- | C2 z2 z4 |] %17
V:4
 A,,2 A,,4 =D,2- | D,2 A,,4 z2 | z4 z2 F,2 | F,2 E,6 | C,2 =D,2 D,2 B,,2 | F,2 E,4 A,,2- | %6
 A,,2 B,,4 B,,2- | B,,2 E,6 | E,2 E,4 F,2- | F,2 G,6 | F,2 E,2 F,2 G,2 | F,2 E,4 =D,2- | %12
 D,2 C,2 ^D,2 E,2 | E,2 F,4 F,2- | F,2 E,6 | E,2 A,,6- | A,,2 z2 z4 |] %17

